lib/functional/media/aperture.svg

<svg xmlns="http://www.w3.org/2000/svg" fill="none" stroke="currentColor" aria-hidden="true" viewBox="0 0 32 32"><g id="Icon-Aperture"><g clip-path="url(#clip0_12_4058)"><g id="size=md (32px)"><path id="Vector" stroke-linecap="round" stroke-linejoin="round" stroke-width="2" d="M16 28C22.6274 28 28 22.6274 28 16C28 9.37258 22.6274 4 16 4C9.37258 4 4 9.37258 4 16C4 22.6274 9.37258 28 16 28Z"/><path id="Vector_2" stroke-linecap="round" stroke-linejoin="round" stroke-width="2" d="M16 4L20.5875 16.8375"/><path id="Vector_3" stroke-linecap="round" stroke-linejoin="round" stroke-width="2" d="M5.6123 10L19.0123 12.45"/><path id="Vector_4" stroke-linecap="round" stroke-linejoin="round" stroke-width="2" d="M5.6123 22L14.4373 11.6125"/><path id="Vector_5" stroke-linecap="round" stroke-linejoin="round" stroke-width="2" d="M15.9996 28.0001L11.4121 15.1626"/><path id="Vector_6" stroke-linecap="round" stroke-linejoin="round" stroke-width="2" d="M26.3873 22L12.9873 19.55"/><path id="Vector_7" stroke-linecap="round" stroke-linejoin="round" stroke-width="2" d="M26.3875 10L17.5625 20.3875"/></g></g></g><defs><clipPath id="clip0_12_4058"><rect width="32" height="32" fill="white" rx="5"/></clipPath></defs></svg>

<svg xmlns="http://www.w3.org/2000/svg" fill="none" stroke="currentColor" aria-hidden="true" viewBox="0 0 32 32"><g stroke="#101828" stroke-linecap="round" stroke-linejoin="round" stroke-width="2" clip-path="url(#a)"><path d="M16 28c6.627 0 12-5.373 12-12S22.627 4 16 4 4 9.373 4 16s5.373 12 12 12Zm0-24 4.587 12.837M5.612 10l13.4 2.45M5.612 22l8.825-10.387M16 28l-4.588-12.837M26.387 22l-13.4-2.45m13.4-9.55-8.825 10.387"/></g><defs><clipPath id="a"><rect width="32" height="32" fill="#fff" rx="5"/></clipPath></defs></svg>
